static/images/banner/hedgedoc_banner_color_horizontal.svg

<svg clip-rule="evenodd" fill-rule="evenodd" stroke-linejoin="round" stroke-miterlimit="2" viewBox="0 0 1772 886" xmlns="http://www.w3.org/2000/svg" xmlns:xlink="http://www.w3.org/1999/xlink"><linearGradient id="a" gradientTransform="matrix(200 -420 420 200 660 1340)" gradientUnits="userSpaceOnUse" x1="0" x2="1" y1="0" y2="0"><stop offset="0" stop-color="#fdd49a"/><stop offset="1" stop-color="#dca055"/></linearGradient><g fill-rule="nonzero"><path d="m0 50.919v-50.919h5.941v23.084h29.023v-23.084h5.94v50.919h-5.94v-22.404h-29.023v22.404z" transform="matrix(3.28495557624 0 0 3.28495557624 570.75793556 387.64959712)"/><path d="m0-.068v2.274h-28.786c.566 3.01 2.02 5.482 4.362 7.418 2.342 1.934 5.165 2.902 8.469 2.902 1.834 0 3.768-.357 5.806-1.069 2.036-.713 3.891-1.862 5.566-3.446l3.293 4.209c-2.467 2.06-4.928 3.474-7.383 4.243-2.456.77-4.826 1.155-7.112 1.155 0 0-6.925-.764-9.776-2.291-2.852-1.528-5.087-3.638-6.704-6.331-1.619-2.693-2.428-5.759-2.428-9.199 0-3.35.759-6.343 2.275-8.979s3.598-4.713 6.246-6.23c2.648-1.515 5.646-2.274 8.995-2.274 3.35 0 6.314.759 8.894 2.274 2.58 1.517 4.605 3.599 6.076 6.247 1.471 2.647 2.207 5.68 2.207 9.097m-28.854-2.478h23.015c-.498-2.965-1.777-5.38-3.836-7.247-2.059-1.868-4.571-2.801-7.535-2.801-3.01 0-5.579.945-7.706 2.834-2.127 1.89-3.44 4.295-3.938 7.214" transform="matrix(3.28495557624 0 0 3.28495557624 846.96613094 499.273678)"/><path d="m0-19.01c2.489 0 4.797.453 6.925 1.358 2.127.906 3.949 2.161 5.465 3.767v-21.419h5.601v50.919h-5.057l-.306-4.719c-1.517 1.675-3.361 2.993-5.533 3.955-2.173.962-4.538 1.443-7.095 1.443-3.281 0-6.218-.764-8.809-2.292s-4.629-3.621-6.11-6.28c-1.483-2.658-2.224-5.685-2.224-9.081 0-3.394.741-6.42 2.224-9.08 1.481-2.659 3.519-4.752 6.11-6.28s5.528-2.291 8.809-2.291m-11.372 17.651c0 2.399.515 4.549 1.545 6.45 1.029 1.901 2.438 3.395 4.226 4.481 1.787 1.087 3.824 1.63 6.11 1.63s4.323-.543 6.11-1.63c1.788-1.086 3.197-2.58 4.227-4.481 1.029-1.901 1.544-4.051 1.544-6.45 0-2.42-.515-4.576-1.544-6.466-1.03-1.889-2.439-3.377-4.227-4.464-1.787-1.086-3.824-1.629-6.11-1.629s-4.323.543-6.11 1.629c-1.788 1.087-3.197 2.575-4.226 4.464-1.03 1.89-1.545 4.046-1.545 6.466" transform="matrix(3.28495557624 0 0 3.28495557624 923.351560112 503.62122328)"/><path d="m0 18.332c-3.281 0-6.218-.763-8.809-2.291s-4.629-3.621-6.11-6.28c-1.483-2.659-2.224-5.686-2.224-9.081s.741-6.421 2.224-9.08c1.481-2.659 3.519-4.752 6.11-6.28s5.528-2.292 8.809-2.292c2.557 0 4.922.481 7.094 1.443 2.173.962 4.017 2.28 5.533 3.955l.306-4.719h5.058v30.619c0 4.187-.758 7.853-2.274 10.999-1.517 3.145-3.751 5.595-6.704 7.349-2.954 1.753-6.592 2.63-10.914 2.63-2.377 0-4.606-.344-6.688-1.035s-3.96-1.657-5.634-2.902l2.783-4.684c1.267 1.108 2.716 1.973 4.346 2.596 1.629.622 3.394.933 5.295.933 4.82 0 8.389-1.386 10.71-4.157 2.319-2.773 3.479-6.467 3.479-11.084v-1.764c-1.516 1.607-3.338 2.862-5.465 3.767-2.128.905-4.436 1.358-6.925 1.358m-11.372-17.652c0 2.399.514 4.549 1.545 6.45 1.029 1.901 2.438 3.394 4.226 4.481 1.787 1.086 3.824 1.629 6.11 1.629 2.285 0 4.323-.543 6.11-1.629 1.788-1.087 3.197-2.58 4.226-4.481 1.03-1.901 1.545-4.051 1.545-6.45 0-2.421-.515-4.577-1.545-6.467-1.029-1.888-2.438-3.377-4.226-4.463-1.787-1.087-3.825-1.63-6.11-1.63-2.286 0-4.323.543-6.11 1.63-1.788 1.086-3.197 2.575-4.226 4.463-1.031 1.89-1.545 4.046-1.545 6.467" transform="matrix(3.28495557624 0 0 3.28495557624 1066.64340044 496.92446308)"/><path d="m0-.068v2.274h-28.786c.566 3.01 2.02 5.482 4.362 7.418 2.342 1.934 5.165 2.902 8.469 2.902 1.834 0 3.769-.357 5.806-1.069 2.036-.713 3.891-1.862 5.566-3.446l3.293 4.209c-2.467 2.06-4.928 3.474-7.383 4.243-2.456.77-4.826 1.155-7.112 1.155-3.666 0-6.925-.764-9.776-2.291-2.851-1.528-5.087-3.638-6.704-6.331-1.619-2.693-2.428-5.759-2.428-9.199 0-3.35.759-6.343 2.275-8.979s3.598-4.713 6.246-6.23c2.648-1.515 5.646-2.274 8.995-2.274 3.35 0 6.314.759 8.894 2.274 2.58 1.517 4.605 3.599 6.076 6.247 1.471 2.647 2.207 5.68 2.207 9.097m-28.854-2.478h23.015c-.498-2.965-1.777-5.38-3.836-7.247-2.059-1.868-4.571-2.801-7.535-2.801-3.01 0-5.579.945-7.706 2.834-2.127 1.89-3.44 4.295-3.938 7.214" transform="matrix(3.28495557624 0 0 3.28495557624 1267.58043908 499.273678)"/><path d="m0 50.919h-13.85v-50.919h13.85c10.003 0 17.686 2.213 23.049 6.637s8.045 10.676 8.045 18.755c0 8.101-2.682 14.382-8.045 18.839-5.363 4.459-13.046 6.688-23.049 6.688m0-5.431c8.056 0 14.235-1.754 18.535-5.262 4.299-3.507 6.449-8.453 6.449-14.834 0-6.359-2.15-11.275-6.449-14.75-4.3-3.473-10.479-5.21-18.535-5.21h-7.909v40.056z" transform="matrix(3.28495557624 0 0 3.28495557624 1340.95382384 387.87210928)"/><path d="m0-.001c0-3.394.764-6.421 2.291-9.08 1.528-2.659 3.621-4.752 6.281-6.28 2.659-1.528 5.685-2.291 9.08-2.291 3.394 0 6.421.763 9.08 2.291s4.752 3.621 6.28 6.28 2.291 5.686 2.291 9.08c0 3.395-.763 6.422-2.291 9.081s-3.621 4.752-6.28 6.28-5.686 2.291-9.08 2.291c-3.395 0-6.421-.763-9.08-2.291-2.66-1.528-4.753-3.621-6.281-6.28-1.527-2.659-2.291-5.686-2.291-9.081m5.771 0c0 2.399.514 4.549 1.545 6.45 1.029 1.901 2.438 3.394 4.226 4.481 1.787 1.086 3.824 1.629 6.11 1.629 2.285 0 4.323-.543 6.11-1.629 1.788-1.087 3.197-2.58 4.227-4.481 1.029-1.901 1.544-4.051 1.544-6.45 0-2.421-.515-4.577-1.544-6.466-1.03-1.889-2.439-3.377-4.227-4.464-1.787-1.087-3.825-1.629-6.11-1.629-2.286 0-4.323.542-6.11 1.629-1.788 1.087-3.197 2.575-4.226 4.464-1.031 1.889-1.545 4.045-1.545 6.466" transform="matrix(3.28495557624 0 0 3.28495557624 1464.37960736 499.16242192)"/><path d="m0 25.256c-1.584 1.584-3.451 2.817-5.601 3.7s-4.503 1.324-7.06 1.324c-3.395 0-6.422-.764-9.081-2.292-2.659-1.527-4.752-3.62-6.28-6.28-1.527-2.658-2.291-5.685-2.291-9.08s.764-6.421 2.291-9.08c1.528-2.66 3.621-4.753 6.28-6.28 2.659-1.528 5.686-2.292 9.081-2.292 2.557 0 4.91.441 7.06 1.324s4.017 2.105 5.601 3.666l-3.904 3.904c-1.064-1.2-2.342-2.133-3.835-2.801-1.494-.667-3.135-1.001-4.922-1.001-2.286 0-4.323.543-6.111 1.63-1.788 1.086-3.197 2.574-4.226 4.463-1.03 1.89-1.544 4.046-1.544 6.467 0 2.399.514 4.549 1.544 6.45 1.029 1.9 2.438 3.394 4.226 4.48 1.788 1.087 3.825 1.63 6.111 1.63 1.787 0 3.428-.34 4.922-1.019 1.493-.679 2.771-1.606 3.835-2.783z" transform="matrix(3.28495557624 0 0 3.28495557624 1699.9985894 457.67674132)"/><path d="m1553.66 961.083 75.25-75.258-75.25-75.246 56.61-90.096-90.1-56.616 35.15-100.446-100.44-35.142 11.91-105.746-105.74-11.912-11.92-105.75-105.74 11.912-35.15-100.445-100.43 35.145-56.63-90.1-90.107 56.617-75.242-75.246-75.242 75.25-90.104-56.612-56.612 90.096-100.442-35.15-35.142 100.441-105.75-11.916-11.912 105.741-105.742 11.913 11.917 105.741-100.454 35.15 35.145 100.438-90.1 56.612 56.621 90.117-75.258 75.25 75.25 75.258-56.613 90.107 90.1 56.61-35.145 100.44 100.45 35.15-11.913 105.73 105.742 11.92 11.912 105.74 105.75-11.91 35.142 100.43 100.437-35.13 56.617 90.1 90.096-56.62 75.25 74.55 75.25-74.53 90.099 56.61 56.61-90.11 100.45 35.15 35.14-100.44 105.75 11.91 11.91-105.75 105.75-11.91-11.92-105.74 100.45-35.15-35.15-100.45 90.1-56.61z" fill="#b51f08" transform="matrix(.2787444061 0 0 .2787444061 10.20701372 226.101061972)"/><path d="m1401.3 1004.78c0-145.437-117.9-263.341-263.34-263.341-72.24 0-137.68 29.112-185.252 76.225l-.033-.034-67.096 67.1-54.862-54.862c-48.267-55.067-119.071-89.879-198.042-89.879-145.442 0-263.342 117.904-263.342 263.341 0 76 32.23 144.43 83.721 192.49l432.779 432.55 423.217-423.49c52.88-49.77 92.25-120 92.25-200.1" fill="#fdd49a" transform="matrix(.2787444061 0 0 .2787444061 10.20701372 226.101061972)"/><path d="m885.579 884.73-54.862-54.862c-48.267-55.067-119.071-89.879-198.042-89.879-145.442 0-263.342 117.904-263.342 263.341 0 76 32.23 144.43 83.721 192.49l432.779 432.55" fill="url(#a)" transform="matrix(.2787444061 0 0 .2787444061 10.20701372 226.101061972)"/></g><path d="m885.833 1628.37-.254-743.64" fill="none" transform="matrix(.2787444061 0 0 .2787444061 10.20701372 226.101061972)"/><path d="m961.011 1553.59c-19.279-19.35-45.917-31.31-75.325-31.31-29.417 0-56.046 11.96-75.329 31.31.308 41.34 33.908 74.76 75.325 74.76 41.416 0 75.02-33.43 75.329-74.76" fill="#010007" fill-rule="nonzero" transform="matrix(.2787444061 0 0 .2787444061 10.20701372 226.101061972)"/><path d="m797.707 1098.22c0 31.8-25.767 57.57-57.571 57.57-31.787 0-57.558-25.77-57.558-57.57s25.771-57.57 57.558-57.57c31.804 0 57.571 25.77 57.571 57.57" fill="#010007" fill-rule="nonzero" transform="matrix(.2787444061 0 0 .2787444061 10.20701372 226.101061972)"/><path d="m777.962 1089.59c0 8.82-7.146 15.94-15.95 15.94-8.808 0-15.958-7.12-15.958-15.94 0-8.81 7.15-15.96 15.958-15.96 8.804 0 15.95 7.15 15.95 15.96" fill="#fffffa" fill-rule="nonzero" transform="matrix(.2787444061 0 0 .2787444061 10.20701372 226.101061972)"/><path d="m1089.65 1098.22c0 31.8-25.77 57.57-57.57 57.57-31.79 0-57.567-25.77-57.567-57.57s25.777-57.57 57.567-57.57c31.8 0 57.57 25.77 57.57 57.57" fill="#010007" fill-rule="nonzero" transform="matrix(.2787444061 0 0 .2787444061 10.20701372 226.101061972)"/><path d="m1069.9 1089.59c0 8.82-7.15 15.94-15.95 15.94-8.81 0-15.96-7.12-15.96-15.94 0-8.81 7.15-15.96 15.96-15.96 8.8 0 15.95 7.15 15.95 15.96" fill="#fffffa" fill-rule="nonzero" transform="matrix(.2787444061 0 0 .2787444061 10.20701372 226.101061972)"/></svg>

<?xml version="1.0" encoding="UTF-8" standalone="no"?>
<!DOCTYPE svg PUBLIC "-//W3C//DTD SVG 1.1//EN" "http://www.w3.org/Graphics/SVG/1.1/DTD/svg11.dtd">
<svg width="100%" height="100%" viewBox="0 0 1772 886" version="1.1" xmlns="http://www.w3.org/2000/svg" xmlns:xlink="http://www.w3.org/1999/xlink" xml:space="preserve" xmlns:serif="http://www.serif.com/" style="fill-rule:evenodd;clip-rule:evenodd;stroke-linejoin:round;stroke-miterlimit:2;">
    <g transform="matrix(0.427908,0,0,0.427908,510.179,-144.086)">
        <g transform="matrix(7.67678,0,0,7.67678,141.57,1242.64)">
            <path d="M0,50.919L0,0L5.941,0L5.941,23.084L34.964,23.084L34.964,0L40.904,0L40.904,50.919L34.964,50.919L34.964,28.515L5.941,28.515L5.941,50.919L0,50.919Z" style="fill-rule:nonzero;"/>
        </g>
        <g transform="matrix(7.67678,0,0,7.67678,787.055,1503.5)">
            <path d="M0,-0.068L0,2.206L-28.786,2.206C-28.22,5.216 -26.766,7.688 -24.424,9.624C-22.082,11.558 -19.259,12.526 -15.955,12.526C-14.121,12.526 -12.187,12.169 -10.149,11.457C-8.113,10.744 -6.258,9.595 -4.583,8.011L-1.29,12.22C-3.757,14.28 -6.218,15.694 -8.673,16.463C-11.129,17.233 -13.499,17.618 -15.785,17.618C-15.785,17.618 -22.71,16.854 -25.561,15.327C-28.413,13.799 -30.648,11.689 -32.265,8.996C-33.884,6.303 -34.693,3.237 -34.693,-0.203C-34.693,-3.553 -33.934,-6.546 -32.418,-9.182C-30.902,-11.818 -28.82,-13.895 -26.172,-15.412C-23.524,-16.927 -20.526,-17.686 -17.177,-17.686C-13.827,-17.686 -10.863,-16.927 -8.283,-15.412C-5.703,-13.895 -3.678,-11.813 -2.207,-9.165C-0.736,-6.518 0,-3.485 0,-0.068M-28.854,-2.546L-5.839,-2.546C-6.337,-5.511 -7.616,-7.926 -9.675,-9.793C-11.734,-11.661 -14.246,-12.594 -17.21,-12.594C-20.22,-12.594 -22.789,-11.649 -24.916,-9.76C-27.043,-7.87 -28.356,-5.465 -28.854,-2.546" style="fill-rule:nonzero;"/>
        </g>
        <g transform="matrix(7.67678,0,0,7.67678,965.564,1513.66)">
            <path d="M0,-19.01C2.489,-19.01 4.797,-18.557 6.925,-17.652C9.052,-16.746 10.874,-15.491 12.39,-13.885L12.39,-35.304L17.991,-35.304L17.991,15.615L12.934,15.615L12.628,10.896C11.111,12.571 9.267,13.889 7.095,14.851C4.922,15.813 2.557,16.294 0,16.294C-3.281,16.294 -6.218,15.53 -8.809,14.002C-11.4,12.474 -13.438,10.381 -14.919,7.722C-16.402,5.064 -17.143,2.037 -17.143,-1.359C-17.143,-4.753 -16.402,-7.779 -14.919,-10.439C-13.438,-13.098 -11.4,-15.191 -8.809,-16.719C-6.218,-18.247 -3.281,-19.01 0,-19.01M-11.372,-1.359C-11.372,1.04 -10.857,3.19 -9.827,5.091C-8.798,6.992 -7.389,8.486 -5.601,9.572C-3.814,10.659 -1.777,11.202 0.509,11.202C2.795,11.202 4.832,10.659 6.619,9.572C8.407,8.486 9.816,6.992 10.846,5.091C11.875,3.19 12.39,1.04 12.39,-1.359C12.39,-3.779 11.875,-5.935 10.846,-7.825C9.816,-9.714 8.407,-11.202 6.619,-12.289C4.832,-13.375 2.795,-13.918 0.509,-13.918C-1.777,-13.918 -3.814,-13.375 -5.601,-12.289C-7.389,-11.202 -8.798,-9.714 -9.827,-7.825C-10.857,-5.935 -11.372,-3.779 -11.372,-1.359" style="fill-rule:nonzero;"/>
        </g>
        <g transform="matrix(7.67678,0,0,7.67678,1300.43,1498.01)">
            <path d="M0,18.332C-3.281,18.332 -6.218,17.569 -8.809,16.041C-11.4,14.513 -13.438,12.42 -14.919,9.761C-16.402,7.102 -17.143,4.075 -17.143,0.68C-17.143,-2.715 -16.402,-5.741 -14.919,-8.4C-13.438,-11.059 -11.4,-13.152 -8.809,-14.68C-6.218,-16.208 -3.281,-16.972 0,-16.972C2.557,-16.972 4.922,-16.491 7.094,-15.529C9.267,-14.567 11.111,-13.249 12.627,-11.574L12.933,-16.293L17.991,-16.293L17.991,14.326C17.991,18.513 17.233,22.179 15.717,25.325C14.2,28.47 11.966,30.92 9.013,32.674C6.059,34.427 2.421,35.304 -1.901,35.304C-4.278,35.304 -6.507,34.96 -8.589,34.269C-10.671,33.578 -12.549,32.612 -14.223,31.367L-11.44,26.683C-10.173,27.791 -8.724,28.656 -7.094,29.279C-5.465,29.901 -3.7,30.212 -1.799,30.212C3.021,30.212 6.59,28.826 8.911,26.055C11.23,23.282 12.39,19.588 12.39,14.971L12.39,13.207C10.874,14.814 9.052,16.069 6.925,16.974C4.797,17.879 2.489,18.332 0,18.332M-11.372,0.68C-11.372,3.079 -10.858,5.229 -9.827,7.13C-8.798,9.031 -7.389,10.524 -5.601,11.611C-3.814,12.697 -1.777,13.24 0.509,13.24C2.794,13.24 4.832,12.697 6.619,11.611C8.407,10.524 9.816,9.031 10.845,7.13C11.875,5.229 12.39,3.079 12.39,0.68C12.39,-1.741 11.875,-3.897 10.845,-5.787C9.816,-7.675 8.407,-9.164 6.619,-10.25C4.832,-11.337 2.794,-11.88 0.509,-11.88C-1.777,-11.88 -3.814,-11.337 -5.601,-10.25C-7.389,-9.164 -8.798,-7.675 -9.827,-5.787C-10.858,-3.897 -11.372,-1.741 -11.372,0.68" style="fill-rule:nonzero;"/>
        </g>
        <g transform="matrix(7.67678,0,0,7.67678,1770.01,1503.5)">
            <path d="M0,-0.068L0,2.206L-28.786,2.206C-28.22,5.216 -26.766,7.688 -24.424,9.624C-22.082,11.558 -19.259,12.526 -15.955,12.526C-14.121,12.526 -12.186,12.169 -10.149,11.457C-8.113,10.744 -6.258,9.595 -4.583,8.011L-1.29,12.22C-3.757,14.28 -6.218,15.694 -8.673,16.463C-11.129,17.233 -13.499,17.618 -15.785,17.618C-19.451,17.618 -22.71,16.854 -25.561,15.327C-28.412,13.799 -30.648,11.689 -32.265,8.996C-33.884,6.303 -34.693,3.237 -34.693,-0.203C-34.693,-3.553 -33.934,-6.546 -32.418,-9.182C-30.902,-11.818 -28.82,-13.895 -26.172,-15.412C-23.524,-16.927 -20.526,-17.686 -17.177,-17.686C-13.827,-17.686 -10.863,-16.927 -8.283,-15.412C-5.703,-13.895 -3.678,-11.813 -2.207,-9.165C-0.736,-6.518 0,-3.485 0,-0.068M-28.854,-2.546L-5.839,-2.546C-6.337,-5.511 -7.616,-7.926 -9.675,-9.793C-11.734,-11.661 -14.246,-12.594 -17.21,-12.594C-20.22,-12.594 -22.789,-11.649 -24.916,-9.76C-27.043,-7.87 -28.356,-5.465 -28.854,-2.546" style="fill-rule:nonzero;"/>
        </g>
        <g transform="matrix(7.67678,0,0,7.67678,1941.48,1243.16)">
            <path d="M0,50.919L-13.85,50.919L-13.85,0L0,0C10.003,0 17.686,2.213 23.049,6.637C28.412,11.061 31.094,17.313 31.094,25.392C31.094,33.493 28.412,39.774 23.049,44.231C17.686,48.69 10.003,50.919 0,50.919M0,45.488C8.056,45.488 14.235,43.734 18.535,40.226C22.834,36.719 24.984,31.773 24.984,25.392C24.984,19.033 22.834,14.117 18.535,10.642C14.235,7.169 8.056,5.432 0,5.432L-7.909,5.432L-7.909,45.488L0,45.488Z" style="fill-rule:nonzero;"/>
        </g>
        <g transform="matrix(7.67678,0,0,7.67678,2229.92,1503.24)">
            <path d="M0,-0.001C0,-3.395 0.764,-6.422 2.291,-9.081C3.819,-11.74 5.912,-13.833 8.572,-15.361C11.231,-16.889 14.257,-17.652 17.652,-17.652C21.046,-17.652 24.073,-16.889 26.732,-15.361C29.391,-13.833 31.484,-11.74 33.012,-9.081C34.54,-6.422 35.303,-3.395 35.303,-0.001C35.303,3.394 34.54,6.421 33.012,9.08C31.484,11.739 29.391,13.832 26.732,15.36C24.073,16.888 21.046,17.651 17.652,17.651C14.257,17.651 11.231,16.888 8.572,15.36C5.912,13.832 3.819,11.739 2.291,9.08C0.764,6.421 0,3.394 0,-0.001M5.771,-0.001C5.771,2.398 6.285,4.548 7.316,6.449C8.345,8.35 9.754,9.843 11.542,10.93C13.329,12.016 15.366,12.559 17.652,12.559C19.937,12.559 21.975,12.016 23.762,10.93C25.55,9.843 26.959,8.35 27.989,6.449C29.018,4.548 29.533,2.398 29.533,-0.001C29.533,-2.422 29.018,-4.578 27.989,-6.467C26.959,-8.356 25.55,-9.844 23.762,-10.931C21.975,-12.018 19.937,-12.56 17.652,-12.56C15.366,-12.56 13.329,-12.018 11.542,-10.931C9.754,-9.844 8.345,-8.356 7.316,-6.467C6.285,-4.578 5.771,-2.422 5.771,-0.001" style="fill-rule:nonzero;"/>
        </g>
        <g transform="matrix(7.67678,0,0,7.67678,2780.55,1406.29)">
            <path d="M0,25.256C-1.584,26.84 -3.451,28.073 -5.601,28.956C-7.751,29.839 -10.104,30.28 -12.661,30.28C-16.056,30.28 -19.083,29.516 -21.742,27.988C-24.401,26.461 -26.494,24.368 -28.022,21.708C-29.549,19.05 -30.313,16.023 -30.313,12.628C-30.313,9.233 -29.549,6.207 -28.022,3.548C-26.494,0.888 -24.401,-1.205 -21.742,-2.732C-19.083,-4.26 -16.056,-5.024 -12.661,-5.024C-10.104,-5.024 -7.751,-4.583 -5.601,-3.7C-3.451,-2.817 -1.584,-1.595 0,-0.034L-3.904,3.87C-4.968,2.67 -6.246,1.737 -7.739,1.069C-9.233,0.402 -10.874,0.068 -12.661,0.068C-14.947,0.068 -16.984,0.611 -18.772,1.698C-20.56,2.784 -21.969,4.272 -22.998,6.161C-24.028,8.051 -24.542,10.207 -24.542,12.628C-24.542,15.027 -24.028,17.177 -22.998,19.078C-21.969,20.978 -20.56,22.472 -18.772,23.558C-16.984,24.645 -14.947,25.188 -12.661,25.188C-10.874,25.188 -9.233,24.848 -7.739,24.169C-6.246,23.49 -4.968,22.563 -3.904,21.386L0,25.256Z" style="fill-rule:nonzero;"/>
        </g>
        <g transform="matrix(0.651412,0,0,0.651412,-1168.41,865.109)">
            <path d="M1553.66,961.083L1628.91,885.825L1553.66,810.579L1610.27,720.483L1520.17,663.867L1555.32,563.421L1454.88,528.279L1466.79,422.533L1361.05,410.621L1349.13,304.871L1243.39,316.783L1208.24,216.338L1107.81,251.483L1051.18,161.383L961.073,218L885.831,142.754L810.589,218.004L720.485,161.392L663.873,251.488L563.431,216.338L528.289,316.779L422.539,304.863L410.627,410.604L304.885,422.517L316.802,528.258L216.348,563.408L251.493,663.846L161.393,720.458L218.014,810.575L142.756,885.825L218.006,961.083L161.393,1051.19L251.493,1107.8L216.348,1208.24L316.798,1243.39L304.885,1349.12L410.627,1361.04L422.539,1466.78L528.289,1454.87L563.431,1555.3L663.868,1520.17L720.485,1610.27L810.581,1553.65L885.831,1628.2L961.081,1553.67L1051.18,1610.28L1107.79,1520.17L1208.24,1555.32L1243.38,1454.88L1349.13,1466.79L1361.04,1361.04L1466.79,1349.13L1454.87,1243.39L1555.32,1208.24L1520.17,1107.79L1610.27,1051.18L1553.66,961.083Z" style="fill:rgb(181,31,8);fill-rule:nonzero;"/>
        </g>
        <g transform="matrix(0.651412,0,0,0.651412,-1168.41,865.109)">
            <path d="M1401.3,1004.78C1401.3,859.343 1283.4,741.439 1137.96,741.439C1065.72,741.439 1000.28,770.551 952.708,817.664L952.675,817.63L885.579,884.73L830.717,829.868C782.45,774.801 711.646,739.989 632.675,739.989C487.233,739.989 369.333,857.893 369.333,1003.33C369.333,1079.33 401.563,1147.76 453.054,1195.82L885.833,1628.37L1309.05,1204.88C1361.93,1155.11 1401.3,1084.88 1401.3,1004.78" style="fill:rgb(253,212,154);fill-rule:nonzero;"/>
        </g>
        <g transform="matrix(0.651412,0,0,0.651412,-1168.41,865.109)">
            <path d="M885.579,884.73L830.717,829.868C782.45,774.801 711.646,739.989 632.675,739.989C487.233,739.989 369.333,857.893 369.333,1003.33C369.333,1079.33 401.563,1147.76 453.054,1195.82L885.833,1628.37" style="fill:url(#_Linear1);fill-rule:nonzero;"/>
        </g>
        <g transform="matrix(0.651412,0,0,0.651412,-1168.41,865.109)">
            <path d="M885.833,1628.37L885.579,884.73" style="fill:none;"/>
        </g>
        <g transform="matrix(0.651412,0,0,0.651412,-1168.41,865.109)">
            <path d="M961.011,1553.59C941.732,1534.24 915.094,1522.28 885.686,1522.28C856.269,1522.28 829.64,1534.24 810.357,1553.59C810.665,1594.93 844.265,1628.35 885.682,1628.35C927.098,1628.35 960.702,1594.92 961.011,1553.59" style="fill:rgb(1,0,7);fill-rule:nonzero;"/>
        </g>
        <g transform="matrix(0.651412,0,0,0.651412,-1168.41,865.109)">
            <path d="M797.707,1098.22C797.707,1130.02 771.94,1155.79 740.136,1155.79C708.349,1155.79 682.578,1130.02 682.578,1098.22C682.578,1066.42 708.349,1040.65 740.136,1040.65C771.94,1040.65 797.707,1066.42 797.707,1098.22" style="fill:rgb(1,0,7);fill-rule:nonzero;"/>
        </g>
        <g transform="matrix(0.651412,0,0,0.651412,-1168.41,865.109)">
            <path d="M777.962,1089.59C777.962,1098.41 770.816,1105.53 762.012,1105.53C753.204,1105.53 746.054,1098.41 746.054,1089.59C746.054,1080.78 753.204,1073.63 762.012,1073.63C770.816,1073.63 777.962,1080.78 777.962,1089.59" style="fill:rgb(255,255,250);fill-rule:nonzero;"/>
        </g>
        <g transform="matrix(0.651412,0,0,0.651412,-1168.41,865.109)">
            <path d="M1089.65,1098.22C1089.65,1130.02 1063.88,1155.79 1032.08,1155.79C1000.29,1155.79 974.513,1130.02 974.513,1098.22C974.513,1066.42 1000.29,1040.65 1032.08,1040.65C1063.88,1040.65 1089.65,1066.42 1089.65,1098.22" style="fill:rgb(1,0,7);fill-rule:nonzero;"/>
        </g>
        <g transform="matrix(0.651412,0,0,0.651412,-1168.41,865.109)">
            <path d="M1069.9,1089.59C1069.9,1098.41 1062.75,1105.53 1053.95,1105.53C1045.14,1105.53 1037.99,1098.41 1037.99,1089.59C1037.99,1080.78 1045.14,1073.63 1053.95,1073.63C1062.75,1073.63 1069.9,1080.78 1069.9,1089.59" style="fill:rgb(255,255,250);fill-rule:nonzero;"/>
        </g>
    </g>
    <defs>
        <linearGradient id="_Linear1" x1="0" y1="0" x2="1" y2="0" gradientUnits="userSpaceOnUse" gradientTransform="matrix(200,-420,420,200,660,1340)"><stop offset="0" style="stop-color:rgb(253,212,154);stop-opacity:1"/><stop offset="1" style="stop-color:rgb(220,160,85);stop-opacity:1"/></linearGradient>
    </defs>
</svg>
